!! 00000] TT[00
!!!OTL: Qiongren dou ba shen fan le
!!!ARE: Asia, China,Gansu, Kangle
!! Ethnic Group: Han, Hui
!! I, 109
!!!SCT: C0970
!!!YEM: Copyright 1995, estate of Helmut Schaffrath.
**kern
*ICvox
*Ivox
!! Mixed meters:  4/4; 3/4
*M3/4
*k[b-e-a-]
*E-:
{2.ff
4b-
=1
4ee-
4ff
4ff
4ff
=2
4ee-
8ee-
8cc
4ee-
4cc}
=3
{4cc
4ff
4cc
4ee-
=4
4cc
4b-
2f}
=5
{2.f
4ee-
=6
4ee-
4ff
8ee-
8cc
4b-
=7
4ff
8ee-
8cc
8ee-
8cc
4b-}
=8
{4ee-
4ff
4cc
8ff
8ee-
=9
4ff
8cc
8b-
2f}
=10
{2.f
8ee-
8cc
=11
8cc
8ee-
4ff
4ff
8ff
8ee-
=12
4ff
8ee-
8cc
4b-
4b-}
=13
{4ee-
4ff
4cc
8ff
8ee-
=14
4ee-
8cc
8b-
2f}
=15
{1f
=16
4ee-
4ee-
4cc
=17
4cc
4b-
4b-
=18
2.f}
==
!!!AGN: Hua'r, Shange. Lianhuashanling; politischer Text
!!!ONB: ESAC (Essen Associative Code) Database: CHINA_012
!!!AMT: irregular
!!!AIN: vox
!!!EED: Helmut Schaffrath
!!!EEV: 1.0
*-
